fonts/lozegw/tmp.svg

<svg width="500" height="850" xmlns="http://www.w3.org/2000/svg">
    <path
        d="m250 200-25 25-75 75-25 25-75 75-25 25 25 25 75 75 25 25 25-25-12.5-12.5L75 425l75-75 25-25 75-75 175 175-87.5 87.5L325 525l25 25 12.5-12.5L450 450l25-25z" />
    <path
        d="m150 300-25 25-75 75-25 25 25 25 75 75 25 25 100 100 100-100 25-25 75-75 25-25-100-100-25-25-25 25 25 25 75 75-75 75-25 25-75 75L75 425l75-75 25-25z" />
</svg>

<?xml version="1.0" encoding="UTF-8" standalone="no"?>
<svg width="500" height="850" version="1.1" id="svg2" sodipodi:docname="tmp.svg" inkscape:version="1.4.2 (ebf0e940, 2025-05-08)" xmlns:inkscape="http://www.inkscape.org/namespaces/inkscape" xmlns:sodipodi="http://sodipodi.sourceforge.net/DTD/sodipodi-0.dtd" xmlns="http://www.w3.org/2000/svg" xmlns:svg="http://www.w3.org/2000/svg">
    <defs id="defs2" />
    <sodipodi:namedview id="namedview2" pagecolor="#ffffff" bordercolor="#000000" borderopacity="0.25" inkscape:showpageshadow="2" inkscape:pageopacity="0.0" inkscape:pagecheckerboard="0" inkscape:deskcolor="#d1d1d1" inkscape:zoom="0.31652174" inkscape:cx="259.06593" inkscape:cy="426.51099" inkscape:window-width="1080" inkscape:window-height="675" inkscape:window-x="0" inkscape:window-y="25" inkscape:window-maximized="0" inkscape:current-layer="svg2" />
    <path id="path1" d="M 150 300 L 125 325 L 50 400 L 25 425 L 50 450 L 125 525 L 150 550 L 175 525 L 162.5 512.5 L 75 425 L 150 350 L 175 325 L 150 300 z M 350 300 L 325 325 L 425 425 L 350 500 L 325 525 L 350 550 L 362.5 537.5 L 450 450 L 475 425 L 350 300 z " />
</svg>
